X: 42700
T: Whistler Of Rosslea, The
R: reel
M: 4/4
K: Gmajor
|:GABc dBcA|=fdcA BAGD|=FGAB cABc|dBcA B2BA|
GBAc Bdce|dgfa gfdc|Bdgf dcAF|1 DGGF G2DF:|2 DGGF GABd||
g2dg Bgdg|gbag afde|=f2cf Afcf|=fedc BA^FA|
G2ga gfdc|Bcde =fdBd|^fede fdcA|GBAF DGBd|
g2gf gfdf|gabg afde|=f2cf Afcf|=fedc BA^FA|
G2ga gfdc|Bcde =fdBd|^fede fdcA|GBAF DGGF||

